X: 4233
M: 6/8
L: 1/8
K: A
|:\
|:\
cAA fAA | gAA fAA | cAA fAA | gec ded |\
cAA fAA | gAA fAA | eaa aba | gec (d2c) :|


